X:1
T:Jesu, Meine Zuversicht, 77.77.77
T:Jesu, Meine Zuversicht, 77.77.77
T:Johann Crüger (1598-1662), adpated by J S Bach
T:Public Domain Courtesy of the Cyber Hymnal™
C:Johann Crüger (1598-1662), adpated by J S Bach
Z:Public Domain
Z:Courtesy of the Cyber Hymnal™
%%score ( 1 2 ) ( 3 4 )
L:1/8
Q:1/4=112
M:none
K:C
V:1 treble 
V:2 treble 
V:3 bass 
V:4 bass 
V:1
|: [CG]2 ([B,F][CE]) [CA]2 [FB]2 | [Gc]2 [Dc]2 !fermata![DB]4 | (AB) [Gc]2 (GF) [CE]2 | F2 E2 D4 | %4
 C8 :| [CE]2 [D^F]2 [D^G]2 ([EA][=FB]) | [Ec]2 [EB]2 !fermata![EA]4 | [FB]2 [Gc]2 [Gd]2 [Ge]2 | %8
 [Ad]2 d2 !fermata![Ec]4 |] %9
V:2
|: x8 | x8 | A4 D2 x2 | C4 C2 B,2 | C8 :| x8 | x8 | x8 | x2 (GF) x4 |] %9
V:3
|: [C,E,]2 ([D,F,][E,G,]) [F,A,]2 [D,D]2 | (CB,) [^F,A,]2 !fermata!G,4 | %2
 [F,C]2 [E,C]2 [B,,D]2 G,2 | [A,,F,]2 [G,,G,]2 [F,,A,]2 (G,F,) | [C,E,]8 :| %5
 [C,G,]2 [C,A,]2 [B,,B,]2 A,2 | [E,A,]2 (^G,D) !fermata![A,,C]4 | [D,D]2 [C,E]2 D2 [C,C]2 | %8
 [F,C]2 [G,B,]2 !fermata![C,C]4 |] %9
V:4
|: x8 | E,2 x G,4 x | x6 (C,B,,) | x6 G,,2 | x8 :| x6 (C,D,) | x2 E,2 x4 | x4 (C,B,,) x2 | x8 |] %9

